img/svg/footer/socials/facebook.svg

<svg width="46" height="46" viewBox="0 0 46 46" fill="none" xmlns="http://www.w3.org/2000/svg">
<circle cx="23" cy="23" r="22.5" fill="#18181B" stroke="url(#paint0_linear_52_1557)"/>
<path d="M20.8828 33.3571V24.2334H17.8125V20.6777H20.8828V18.0555C20.8828 15.0125 22.7414 13.3555 25.456 13.3555C26.7563 13.3555 27.8739 13.4523 28.1996 13.4956V16.6757L26.3169 16.6766C24.8405 16.6766 24.5546 17.3781 24.5546 18.4076V20.6777H28.0756L27.6172 24.2334H24.5546V33.3571H20.8828Z" fill="white"/>
<defs>
<linearGradient id="paint0_linear_52_1557" x1="0" y1="23" x2="46" y2="23" gradientUnits="userSpaceOnUse">
<stop offset="0" stop-color="#0CBAF1"/>
<stop offset="1" stop-color="#E95CE9"/>
</linearGradient>
</defs>
</svg>

<svg width="46" height="46" fill="none" xmlns="http://www.w3.org/2000/svg"><circle cx="23" cy="23" r="22.5" fill="#18181B" stroke="url(#a)"/><path d="M20.883 33.357v-9.124h-3.07v-3.555h3.07v-2.623c0-3.043 1.858-4.7 4.573-4.7 1.3 0 2.418.097 2.744.14v3.18l-1.883.002c-1.477 0-1.762.701-1.762 1.73v2.27h3.52l-.458 3.556h-3.062v9.124h-3.672Z" fill="#fff"/><defs><linearGradient id="a" x1="0" y1="23" x2="46" y2="23" gradientUnits="userSpaceOnUse"><stop offset="0" stop-color="#0CBAF1"/><stop offset="1" stop-color="#E95CE9"/></linearGradient></defs></svg>
